icons/SleepTimer.svg

<svg width="24" height="24" viewBox="0 0 24 24" fill="none" xmlns="http://www.w3.org/2000/svg">
<path fill-rule="evenodd" clip-rule="evenodd" d="M16.374 7.195V8.602C18.2097 8.86539 19.8774 9.81449 21.0413 11.2582C22.2052 12.7019 22.7789 14.533 22.6469 16.3827C22.5149 18.2325 21.6869 19.9635 20.3297 21.2273C18.9725 22.491 17.187 23.1937 15.3325 23.1937C13.478 23.1937 11.6925 22.491 10.3353 21.2273C8.9781 19.9635 8.15014 18.2325 8.01811 16.3827C7.88608 14.533 8.45979 12.7019 9.62372 11.2582C10.7876 9.81449 12.4553 8.86539 14.291 8.602V7.195H16.374ZM15.333 11.028C15.2447 11.028 15.16 11.0631 15.0975 11.1255C15.0351 11.188 15 11.2727 15 11.361V14.918C14.8049 14.9869 14.636 15.1145 14.5165 15.2834C14.397 15.4523 14.3328 15.6541 14.3328 15.861C14.3328 16.0679 14.397 16.2697 14.5165 16.4386C14.636 16.6075 14.8049 16.7351 15 16.804V17.528C15 17.6164 15.0351 17.7013 15.0977 17.7638C15.1602 17.8264 15.2451 17.8615 15.3335 17.8615C15.4219 17.8615 15.5068 17.8264 15.5693 17.7638C15.6319 17.7013 15.667 17.6164 15.667 17.528V16.805C15.8621 16.7361 16.031 16.6085 16.1505 16.4396C16.27 16.2707 16.3342 16.0689 16.3342 15.862C16.3342 15.6551 16.27 15.4533 16.1505 15.2844C16.031 15.1155 15.8621 14.9879 15.667 14.919V11.362C15.6671 11.3181 15.6586 11.2746 15.6418 11.234C15.6251 11.1934 15.6005 11.1566 15.5695 11.1255C15.5384 11.0945 15.5016 11.0699 15.461 11.0532C15.4204 11.0364 15.3769 11.0279 15.333 11.028V11.028ZM21.616 7.379L23.2 8.959L22.147 10.012L21.665 9.53L21.105 10.092L20.488 9.474L21.049 8.913L20.568 8.432L21.616 7.379ZM6.266 2.231L10.575 2.913L10.442 3.75L6.842 7.055L9.882 7.536L9.73 8.495L5.38 7.806L5.504 7.023L9.151 3.67L6.111 3.189L6.266 2.231ZM3.2 1L3.243 1.622L1.213 4.584L3.47 4.426L3.52 5.138L0.29 5.364L0.249 4.782L2.307 1.782L0.05 1.936L0 1.224L3.2 1Z" fill="black"/>
</svg>

<svg xmlns="http://www.w3.org/2000/svg" viewBox="0 0 24 24">
  <path d="M16.374 7.195v1.407a7.333 7.333 0 11-2.083 0V7.195h2.083zm-1.041 3.833a.333.333 0 00-.333.333v3.557a1 1 0 000 1.886v.724a.333.333 0 10.667 0v-.723a1 1 0 000-1.886v-3.557a.333.333 0 00-.334-.334zm6.283-3.649l1.584 1.58-1.053 1.053-.482-.482-.56.562-.617-.618.561-.561-.481-.481 1.048-1.053zM6.266 2.231l4.309.682-.133.837-3.6 3.305 3.04.481-.152.959-4.35-.689.124-.783L9.151 3.67l-3.04-.481.155-.958zM3.2 1l.043.622-2.03 2.962 2.257-.158.05.712-3.23.226-.041-.582 2.058-3-2.257.154L0 1.224 3.2 1z"/>
</svg>
